X: 10561
T: LENNOX'S LOVE TO BLANTYRE
%R: reel
B: "Edinburgh Repository of Music" v.1 p.56 #1
F: http://digital.nls.uk/special-collections-of-printed-music/pageturner.cfm?id=87776133
Z: 2015 John Chambers <jc:trillian.mit.edu>
M: C|
L: 1/8
K: G
B !segno!|\
G2G>A B>AGB | A/A/A B>d Te>def |\
Tg>age dBGB | cABG E/E/E E :|\
g |\
~d>ega bagb | agab a>geg |
~d>ega bagb | agc'b Ta2g2 |\
~d>ega bagb | Ta>gab a>geg |\
d>ega g>abg | {b}agc'b Ta2g2 !segno!|]

%%sep 2 1 500
%%sep 1 1 500

